X: 114205
Q: "Strathspey."
M: C
L: 1/8
K: Dm
uA |\
vF>vAuD>uA F>AD>F | vG<uC vE>uG vC>uG E<G |\
(e/f/) |\
va<ud vf>ua vd>vauf>ua |
g<c e>g c>g (e<g) |\
[1 a<d f>a d>af>a | g<c a/g/f/e/ f<d d :|\
[2 (3agf (3gfe (3fed (3edc | A<c A/G/F/E/ F<D D |]


